X:1
T:Title
%%score { 1 | 2 }
L:1/8
M:3/4
K:Ab
V:1 treble nm="Grand Piano"
V:2 bass 
V:1
 z2 z2[Q:1/4=100] [CE]2 | [CE]3 [CF] [CG][CA] | A>G G2 D2 | [G,DF]3 [G,DF] [G,EG][G,DF] | %4
[M:2/4] [CE]4 |[M:1/4] [CE]2 |[M:3/4] [CE]>[A,C] [CA]3 [EG] | [EG]>F F3 F | %8
 [=DF]>[B,D] [DB]3 [DA] |[M:5/8] [FA]>G G3 |[M:1/8] E |[M:3/4] [CA]3 [CA] [EA][CA] | %12
 [Ec]3 [CE] EE | B4 [CA]2 |[M:2/4] [CA]4 |[M:1/4] [CA]2 |[M:3/4] A>G G3 F | [DF]>[CE] [CE]3 [CE] | %18
 [Ec]3 [Ec] [A,=Dc]>[DB] |[M:2/4] B4 |[M:1/4] E2 |[M:3/4] [Ec]>[Ec] [Ec]3 [EA] | %22
[M:15/16] [FA][E_GA]/-[EGA]/[Fd]- [Fd]3- [Fd]/F |[M:3/4] Ec B3 [CA] |[M:2/4] [CA]4 |] %25
V:2
 z2 z2 [A,,A,]2 | [A,,A,]3 [A,,A,] [A,,A,][A,,A,] | [E,B,D]>[E,B,D] [E,B,D]2 [E,G,B,]2 | %3
 [E,,E,]3 [E,,E,] [E,,E,][E,,E,] |[M:2/4] [A,,A,]4 |[M:1/4] [A,,A,]2 | %6
[M:3/4] [A,,A,]>[A,,E,] [A,,E,]3 [C,A,] | [D,A,]>[D,A,D] [D,A,D]3 [D,A,D] | %8
 [B,,A,]>[B,,A,] [B,,F,]3 [B,,B,] |[M:5/8] [E,B,]>[E,B,E] [E,B,E]3 |[M:1/8] [E,G,D] | %11
[M:3/4] [A,,E,A,]3 [A,,E,] [C,A,][E,A,] | [A,,A,]3 [A,,A,] [E,A,C][E,A,C] | [E,,E,G,D]4 [A,,A,]2 | %14
[M:2/4] [A,,A,]4 |[M:1/4] [A,,A,]2 |[M:3/4] [E,B,D]>[E,B,D] [E,B,D]3 [E,G,D] | %17
 [A,,A,]>[A,,A,] [A,,A,]3 [A,,A,] | [A,,A,]3 [A,,A,] [F,,F,]>[B,,A,] |[M:2/4] [E,,E,G,E]4 | %20
[M:1/4] [E,G,]2 |[M:3/4] [A,,A,]>[A,,A,] [A,,A,]3 [C,A,] | %22
[M:15/16] [D,A,][C,A,]/-[C,A,]/[D,D]- [D,D]3- [D,D]/[D,A,D] | %23
[M:3/4] [E,A,C][E,A,E] [E,,E,G,D]3 [A,,A,] |[M:2/4] [A,,A,]4 |] %25

